assets/logos/beetween.svg

<svg width="93" height="17" viewBox="0 0 93 17" fill="none" xmlns="http://www.w3.org/2000/svg">
<g clip-path="url(#clip0_43_255)">
<mask id="mask0_43_255" style="mask-type:luminance" maskUnits="userSpaceOnUse" x="0" y="0" width="13" height="17">
<path d="M12.8962 0H0V17H12.8962V0Z" fill="white"/>
</mask>
<g mask="url(#mask0_43_255)">
<mask id="mask1_43_255" style="mask-type:luminance" maskUnits="userSpaceOnUse" x="0" y="0" width="13" height="17">
<path d="M12.8702 0H0V16.9663H12.8702V0Z" fill="white"/>
</mask>
<g mask="url(#mask1_43_255)">
<path d="M8.6951 6.19375C8.3824 7.44628 7.2949 8.37925 6.00389 8.48245H5.27455V8.48315H4.4427C3.28296 8.48315 2.3401 9.45497 2.3401 10.6486V11.4914H0V10.6486C0 8.12582 1.9931 6.07313 4.4427 6.07313H4.44588L4.44625 6.07239H7.582C7.96374 6.07239 8.33614 6.11422 8.6951 6.19375Z" fill="#F1F1F1"/>
<path d="M10.5308 11.5194C10.5308 10.6365 10.1632 9.84057 9.57747 9.28521C10.1384 8.71226 10.5758 8.01386 10.843 7.23389C12.0765 8.23179 12.8702 9.78152 12.8702 11.5187C12.8702 14.522 10.4981 16.9649 7.58204 16.9649V16.9664H0.455555C0.203959 16.9664 0 16.7564 0 16.4972V11.4915H2.3401V14.5564H7.58204C9.20752 14.5564 10.5308 13.1943 10.5308 11.5194Z" fill="#F1F1F1"/>
<path d="M5.75254 10.9045H3.68918C3.21318 10.9045 2.75813 10.8124 2.34009 10.6446C2.34212 9.51864 3.18299 8.59106 4.25267 8.49193H5.76543C7.38407 8.49193 8.74678 7.18487 8.78471 5.52518L11.1376 5.5061C11.109 8.50735 8.68031 10.9045 5.75254 10.9045Z" fill="#F1F1F1"/>
<path d="M11.1398 5.50162C11.1342 6.09367 11.0349 6.66222 10.8568 7.19341C11.0337 6.66346 11.1322 6.09649 11.1378 5.50613L8.7862 5.52521L8.78632 5.52069C8.8242 3.86235 7.48046 2.41058 5.82208 2.41058H2.33864V6.58058C2.33864 6.59355 2.33877 6.60653 2.33902 6.61951C1.47278 7.10119 0.778581 7.87063 0.377966 8.80256C0.127083 8.29107 -0.0141602 7.71344 -0.0141602 7.1021V0.748751C-0.0141602 0.335227 0.311335 0 0.712853 0H5.82135C8.7713 0 11.1684 2.47284 11.1398 5.50162Z" fill="#F1F1F1"/>
<path d="M4.25281 8.49195H5.76557C7.13311 8.49195 8.31799 7.55894 8.67554 6.26855C8.67478 6.27133 8.67397 6.27411 8.67321 6.27689C8.33402 7.48741 7.26629 8.38157 6.00403 8.48245H5.89001C5.84895 8.48415 5.80768 8.48498 5.76625 8.48498H4.35636C4.32161 8.48643 4.28711 8.48875 4.25281 8.49195Z" fill="#F1F1F1"/>
</g>
</g>
<mask id="mask2_43_255" style="mask-type:luminance" maskUnits="userSpaceOnUse" x="19" y="3" width="74" height="12">
<path d="M92.7837 3.16968H19.7634V14.2662H92.7837V3.16968Z" fill="white"/>
</mask>
<g mask="url(#mask2_43_255)">
<path d="M19.9161 14.0897C19.8318 14.0897 19.7634 14.0193 19.7634 13.9325V3.32684C19.7634 3.24004 19.8317 3.16968 19.9161 3.16968H24.4638C26.7272 3.16968 28.0888 4.27595 28.0888 6.22386C28.0888 7.15144 27.7988 7.79375 27.11 8.37486C27.0924 8.38979 27.096 8.41902 27.1167 8.42905C28.1997 8.95597 28.5758 10.1014 28.5758 10.9601C28.5758 12.9823 27.1578 14.0886 24.8076 14.0886L19.9161 14.0897ZM22.2714 7.3947C22.2714 7.48149 22.3398 7.55185 22.424 7.55185H24.2778C25.0082 7.55185 25.5098 7.28603 25.5098 6.47459C25.5098 5.66315 25.0082 5.38224 24.2778 5.38224H22.424C22.3398 5.38224 22.2714 5.4526 22.2714 5.53938V7.3947ZM22.2714 11.7188C22.2714 11.8056 22.3398 11.876 22.424 11.876H24.6791C25.467 11.876 25.9979 11.6253 25.9979 10.6954C25.9979 9.82479 25.4681 9.55893 24.6791 9.55893H22.424C22.3398 9.55893 22.2714 9.62929 22.2714 9.71612V11.7188Z" fill="#F1F1F1"/>
<path d="M29.5217 9.89914C29.5217 7.28723 30.7966 5.53088 33.6337 5.53088C36.2127 5.53088 37.5744 7.28723 37.5744 9.92816C37.5744 10.2572 37.5636 10.4339 37.5336 10.6908C37.5244 10.7692 37.4595 10.8278 37.3828 10.8278H32.0845C31.9888 10.8278 31.9163 10.918 31.9414 11.0131C32.211 12.0359 33.0428 12.3915 34.221 12.3915C34.8443 12.3915 35.6338 12.2992 36.4809 11.9527C36.5617 11.9197 36.6542 11.9601 36.6847 12.044L37.1835 13.4137C37.2104 13.4877 37.1799 13.5709 37.1113 13.6064C36.2013 14.0765 35.2404 14.2662 33.964 14.2662C30.8687 14.2662 29.5217 12.5099 29.5217 9.89798V9.89914ZM35.1291 9.38255C35.2133 9.38255 35.2821 9.31181 35.2785 9.22511C35.232 8.06749 34.6632 7.40565 33.6337 7.40565C32.5104 7.40565 31.95 8.09374 31.9033 9.22511C31.8997 9.31185 31.9684 9.38255 32.0527 9.38255H35.1291Z" fill="#F1F1F1"/>
<path d="M38.4343 9.89914C38.4343 7.28723 39.7091 5.53088 42.5461 5.53088C45.1251 5.53088 46.4867 7.28723 46.4867 9.92816C46.4867 10.2572 46.4762 10.4339 46.446 10.6908C46.4372 10.7692 46.372 10.8278 46.2955 10.8278H40.9969C40.9015 10.8278 40.829 10.918 40.854 11.0131C41.1237 12.0359 41.9555 12.3915 43.1335 12.3915C43.7567 12.3915 44.5462 12.2992 45.3932 11.9527C45.4742 11.9197 45.5668 11.9601 45.5974 12.044L46.0962 13.4137C46.1227 13.4877 46.0926 13.5709 46.0237 13.6064C45.1138 14.0765 44.1528 14.2662 42.8766 14.2662C39.7813 14.2662 38.4343 12.5099 38.4343 9.89798V9.89914ZM44.0417 9.38255C44.1259 9.38255 44.1947 9.31181 44.1911 9.22511C44.1444 8.06749 43.5759 7.40565 42.5461 7.40565C41.4228 7.40565 40.8624 8.09374 40.8157 9.22511C40.8121 9.31185 40.8809 9.38255 40.9651 9.38255H44.0417Z" fill="#F1F1F1"/>
<path d="M48.077 10.9172V7.82745C48.077 7.74066 48.0089 7.6703 47.9244 7.6703H47.1981C47.114 7.6703 47.0455 7.59994 47.0455 7.51315V6.32224C47.0455 6.26208 47.0789 6.20722 47.1317 6.18089L48.077 5.70734L48.6555 4.18435C48.6785 4.12412 48.7348 4.08447 48.7976 4.08447H50.3468C50.431 4.08447 50.4994 4.15482 50.4994 4.24165V5.55019C50.4994 5.63697 50.5679 5.70734 50.652 5.70734H52.7117C52.7958 5.70734 52.8643 5.7777 52.8643 5.86448V7.51315C52.8643 7.59994 52.7958 7.6703 52.7117 7.6703H50.652C50.5679 7.6703 50.4994 7.74066 50.4994 7.82745V10.9172C50.4994 12.0095 50.9866 12.2452 51.5309 12.2452C51.9343 12.2452 52.2668 12.1724 52.6143 12.0372C52.665 12.0175 52.7201 12.0556 52.7201 12.1114V13.7531C52.7201 13.8146 52.6851 13.8707 52.6304 13.8949C52.1412 14.1099 51.5204 14.2674 50.9008 14.2674C49.3383 14.2674 48.0782 13.7218 48.0782 10.9172H48.077Z" fill="#F1F1F1"/>
<path d="M54.0962 10.6954V5.86446C54.0962 5.77764 54.1646 5.70728 54.2488 5.70728H56.0786C56.1627 5.70728 56.2312 5.77764 56.2312 5.86446V10.6954C56.2312 11.6404 56.7179 12.201 57.5501 12.201C58.3818 12.201 58.8968 11.6404 58.8968 10.6954V5.86446C58.8968 5.77764 58.9652 5.70728 59.0494 5.70728H60.7362C60.8204 5.70728 60.8888 5.77764 60.8888 5.86446V10.6954C60.8888 11.6404 61.3905 12.201 62.2355 12.201C63.081 12.201 63.5544 11.6404 63.5544 10.6954V5.86446C63.5544 5.77764 63.6229 5.70728 63.707 5.70728H65.5368C65.6209 5.70728 65.6894 5.77764 65.6894 5.86446V10.6954C65.6894 13.0717 64.2847 14.2662 62.523 14.2662C61.291 14.2662 60.4886 13.8378 59.9012 12.8349C59.2994 13.8378 58.497 14.2662 57.2646 14.2662C55.5017 14.2662 54.0986 13.0705 54.0986 10.6954H54.0962Z" fill="#F1F1F1"/>
<path d="M66.9439 9.89914C66.9439 7.28723 68.2189 5.53088 71.056 5.53088C73.6351 5.53088 74.9967 7.28723 74.9967 9.92816C74.9967 10.2572 74.9858 10.4339 74.956 10.6908C74.9467 10.7692 74.8819 10.8278 74.805 10.8278H69.5068C69.411 10.8278 69.3386 10.918 69.3635 11.0131C69.6333 12.0359 70.465 12.3915 71.6434 12.3915C72.2667 12.3915 73.0561 12.2992 73.9032 11.9527C73.9841 11.9197 74.0763 11.9601 74.1069 12.044L74.6057 13.4137C74.6327 13.4877 74.6021 13.5709 74.5337 13.6064C73.6238 14.0765 72.6628 14.2662 71.3862 14.2662C68.291 14.2662 66.9439 12.5099 66.9439 9.89798V9.89914ZM72.5513 9.38255C72.6354 9.38255 72.7043 9.31181 72.7006 9.22511C72.6543 8.06749 72.0855 7.40565 71.056 7.40565C69.9328 7.40565 69.3724 8.09374 69.3257 9.22511C69.3221 9.31185 69.3909 9.38255 69.475 9.38255H72.5513Z" fill="#F1F1F1"/>
<path d="M75.8486 9.89914C75.8486 7.28723 77.1236 5.53088 79.9607 5.53088C82.5397 5.53088 83.9013 7.28723 83.9013 9.92816C83.9013 10.2572 83.8905 10.4339 83.8607 10.6908C83.8514 10.7692 83.7866 10.8278 83.7097 10.8278H78.4115C78.3157 10.8278 78.2432 10.918 78.2686 11.0131C78.5379 12.0359 79.3697 12.3915 80.5481 12.3915C81.1713 12.3915 81.9608 12.2992 82.8079 11.9527C82.8888 11.9197 82.9814 11.9601 83.0116 12.044L83.5104 13.4137C83.5374 13.4877 83.5068 13.5709 83.4383 13.6064C82.5285 14.0765 81.5675 14.2662 80.2908 14.2662C77.1957 14.2662 75.8486 12.5099 75.8486 9.89798V9.89914ZM81.456 9.38255C81.5405 9.38255 81.6089 9.31181 81.6057 9.22511C81.559 8.06749 80.9901 7.40565 79.9607 7.40565C78.8375 7.40565 78.277 8.09374 78.2303 9.22511C78.2267 9.31185 78.2956 9.38255 78.3797 9.38255H81.456Z" fill="#F1F1F1"/>
<path d="M85.2182 5.8645C85.2182 5.77772 85.2866 5.70735 85.3708 5.70735H87.0818C87.1559 5.70735 87.2191 5.76217 87.232 5.83734L87.4228 6.9566C87.4277 6.98646 87.4675 6.99255 87.4812 6.96589C87.9357 6.0986 88.7651 5.53088 89.9173 5.53088C91.766 5.53088 92.7826 6.65226 92.7826 8.95423V13.9326C92.7826 14.0194 92.7146 14.0898 92.63 14.0898H90.514C90.4298 14.0898 90.3614 14.0194 90.3614 13.9326V8.95423C90.3614 8.08358 89.9322 7.64129 89.1443 7.64129C88.1837 7.64129 87.6394 8.08358 87.6394 9.36745V13.9326C87.6394 14.0194 87.571 14.0898 87.4868 14.0898H85.3708C85.2866 14.0898 85.2182 14.0194 85.2182 13.9326V5.8645Z" fill="#F1F1F1"/>
</g>
</g>
<defs>
<clipPath id="clip0_43_255">
<rect width="93" height="17" fill="white"/>
</clipPath>
</defs>
</svg>

<svg xmlns="http://www.w3.org/2000/svg" width="93" height="17" fill="none" viewBox="0 0 93 17"><g clip-path="url(#a)"><mask id="b" width="13" height="17" x="0" y="0" maskUnits="userSpaceOnUse" style="mask-type:luminance"><path fill="#fff" d="M12.896 0H0v17h12.896z"/></mask><g mask="url(#b)"><mask id="c" width="13" height="17" x="0" y="0" maskUnits="userSpaceOnUse" style="mask-type:luminance"><path fill="#fff" d="M12.87 0H0v16.966h12.87z"/></mask><g fill="#f1f1f1" mask="url(#c)"><path d="M8.695 6.194a3.04 3.04 0 0 1-2.691 2.288h-.73v.001h-.831c-1.16 0-2.103.972-2.103 2.166v.842H0v-.842c0-2.523 1.993-4.576 4.443-4.576h3.139q.574 0 1.113.12"/><path d="M10.53 11.52c0-.883-.367-1.68-.953-2.235a5.5 5.5 0 0 0 1.266-2.051 5.5 5.5 0 0 1 2.027 4.285c0 3.003-2.372 5.446-5.288 5.446v.001H.456A.46.46 0 0 1 0 16.497v-5.005h2.34v3.064h5.242c1.626 0 2.949-1.362 2.949-3.037"/><path d="M5.753 10.905H3.689c-.476 0-.93-.093-1.349-.26.002-1.126.843-2.054 1.913-2.153h1.512a3.036 3.036 0 0 0 3.02-2.967l2.353-.019c-.029 3.001-2.458 5.399-5.385 5.399"/><path d="m11.14 5.502-.002.004-2.352.02V5.52c.038-1.659-1.306-3.11-2.964-3.11H2.34V6.62A4.56 4.56 0 0 0 .378 8.803a3.85 3.85 0 0 1-.392-1.7V.748C-.014.335.31 0 .713 0H5.82c2.95 0 5.347 2.473 5.319 5.502M4.253 8.492h1.513a3.036 3.036 0 0 0 2.91-2.223l-.003.008a3.04 3.04 0 0 1-2.669 2.205H5.89l-.124.003h-1.41q-.051.002-.103.007"/></g></g><mask id="d" width="74" height="12" x="19" y="3" maskUnits="userSpaceOnUse" style="mask-type:luminance"><path fill="#fff" d="M92.784 3.17h-73.02v11.096h73.02z"/></mask><g fill="#f1f1f1" mask="url(#d)"><path d="M19.916 14.09a.155.155 0 0 1-.153-.158V3.327c0-.087.069-.157.153-.157h4.548c2.263 0 3.625 1.106 3.625 3.054 0 .927-.29 1.57-.979 2.15a.033.033 0 0 0 .007.055c1.083.527 1.459 1.672 1.459 2.531 0 2.022-1.418 3.129-3.768 3.129zm2.355-6.695c0 .086.069.157.153.157h1.854c.73 0 1.232-.266 1.232-1.077 0-.812-.502-1.093-1.232-1.093h-1.854a.155.155 0 0 0-.153.157zm0 4.324c0 .087.069.157.153.157h2.255c.788 0 1.319-.25 1.319-1.18 0-.871-.53-1.137-1.319-1.137h-2.255a.155.155 0 0 0-.153.157zM29.522 9.9c0-2.613 1.275-4.37 4.112-4.37 2.579 0 3.94 1.757 3.94 4.398 0 .33-.01.506-.04.763a.153.153 0 0 1-.151.137h-5.299a.148.148 0 0 0-.143.185c.27 1.023 1.102 1.379 2.28 1.379.623 0 1.413-.093 2.26-.44a.154.154 0 0 1 .204.092l.498 1.37a.156.156 0 0 1-.072.192c-.91.47-1.87.66-3.147.66-3.095 0-4.442-1.756-4.442-4.368zm5.607-.517a.15.15 0 0 0 .15-.158c-.047-1.158-.616-1.82-1.645-1.82-1.124 0-1.684.689-1.73 1.82a.15.15 0 0 0 .149.158zM38.434 9.9c0-2.613 1.275-4.37 4.112-4.37 2.58 0 3.94 1.757 3.94 4.398 0 .33-.01.506-.04.763a.153.153 0 0 1-.15.137h-5.3a.148.148 0 0 0-.142.185c.27 1.023 1.102 1.379 2.28 1.379.623 0 1.412-.093 2.26-.44a.155.155 0 0 1 .203.092l.5 1.37a.16.16 0 0 1-.073.192c-.91.47-1.871.66-3.147.66-3.096 0-4.443-1.756-4.443-4.368zm5.608-.517a.15.15 0 0 0 .15-.158c-.048-1.158-.616-1.82-1.646-1.82-1.123 0-1.684.689-1.73 1.82a.15.15 0 0 0 .15.158zM48.077 10.917v-3.09a.155.155 0 0 0-.153-.157h-.726a.155.155 0 0 1-.153-.157v-1.19c0-.06.034-.116.087-.142l.945-.474.579-1.523c.023-.06.079-.1.142-.1h1.549c.084 0 .152.07.152.158V5.55c0 .087.069.157.153.157h2.06c.084 0 .152.07.152.157v1.65a.155.155 0 0 1-.152.156h-2.06a.155.155 0 0 0-.153.157v3.09c0 1.092.488 1.328 1.032 1.328.403 0 .736-.073 1.083-.208.051-.02.106.019.106.074v1.642a.15.15 0 0 1-.09.142 4.4 4.4 0 0 1-1.73.372c-1.562 0-2.822-.545-2.822-3.35zM54.096 10.695v-4.83c0-.087.069-.158.153-.158h1.83c.084 0 .152.07.152.157v4.831c0 .945.487 1.506 1.32 1.506.83 0 1.346-.56 1.346-1.506v-4.83c0-.087.068-.158.152-.158h1.687c.084 0 .153.07.153.157v4.831c0 .945.502 1.506 1.346 1.506.846 0 1.32-.56 1.32-1.506v-4.83c0-.087.068-.158.152-.158h1.83c.084 0 .152.07.152.157v4.831c0 2.377-1.404 3.571-3.166 3.571-1.232 0-2.034-.428-2.622-1.431-.602 1.003-1.404 1.431-2.636 1.431-1.763 0-3.166-1.196-3.166-3.57zM66.944 9.9c0-2.613 1.275-4.37 4.112-4.37 2.58 0 3.94 1.757 3.94 4.398 0 .33-.01.506-.04.763a.153.153 0 0 1-.151.137h-5.298a.148.148 0 0 0-.144.185c.27 1.023 1.102 1.379 2.28 1.379.624 0 1.413-.093 2.26-.44a.154.154 0 0 1 .204.092l.499 1.37a.156.156 0 0 1-.072.192c-.91.47-1.871.66-3.148.66-3.095 0-4.442-1.756-4.442-4.368zm5.607-.517a.15.15 0 0 0 .15-.158c-.047-1.158-.615-1.82-1.645-1.82-1.123 0-1.684.689-1.73 1.82a.15.15 0 0 0 .149.158zM75.849 9.9c0-2.613 1.275-4.37 4.112-4.37 2.579 0 3.94 1.757 3.94 4.398 0 .33-.01.506-.04.763a.153.153 0 0 1-.151.137h-5.298a.147.147 0 0 0-.143.185c.269 1.023 1.1 1.379 2.28 1.379.622 0 1.412-.093 2.259-.44a.154.154 0 0 1 .204.092l.498 1.37a.156.156 0 0 1-.072.192c-.91.47-1.87.66-3.147.66-3.095 0-4.442-1.756-4.442-4.368zm5.607-.517a.15.15 0 0 0 .15-.158c-.047-1.158-.616-1.82-1.645-1.82-1.123 0-1.684.689-1.73 1.82a.15.15 0 0 0 .149.158zM85.218 5.865c0-.087.069-.158.153-.158h1.71c.075 0 .138.055.151.13l.19 1.12c.006.03.046.036.06.009.454-.867 1.283-1.435 2.435-1.435 1.849 0 2.866 1.121 2.866 3.423v4.979a.155.155 0 0 1-.153.157h-2.116a.155.155 0 0 1-.153-.157V8.954c0-.87-.429-1.313-1.217-1.313-.96 0-1.505.443-1.505 1.726v4.566a.155.155 0 0 1-.152.157H85.37a.155.155 0 0 1-.153-.157z"/></g></g><defs><clipPath id="a"><path fill="#fff" d="M0 0h93v17H0z"/></clipPath></defs></svg>
